X: 28396
T: Muirsheen Durkin
R: polka
M: 2/4
K: Dmajor
E|FF ED|EA AB|cA GE|FD- D2|
F>F ED|EA AB|cA Bc|d2- d||
A|d>d ed|cA A>B|c>A GE|FD D2|
FG/F/ E>D|EA AB|cA G/F/E|D2- D||
E|FF ED|EA- AB|c<A GE|FD- DD/E/|
F>F ED|EA AA/B/|c/B/A Bc|d2- d/||
(3A/B/c/|dc/d/ ed|cA A2|c>A G/F/E/G/|FD- DD/E/|
FF/F/ ED|EA/A/ AB|cA GE|D2- D||

